src/assets/signals/daa.svg

<svg width="28" height="30" viewBox="0 0 28 30" fill="none" xmlns="http://www.w3.org/2000/svg">
  <g clip-path="url(#clip0)">
    <path d="M14.1225 28.1668C10.7851 29.9308 7.24595 25.0046 3.96864 22.369C0.691329 19.7334 -0.609099 15.5235 2.64701 10.7288C5.90313 5.93411 9.16599 11.6873 11.5901 12.4012C14.0142 13.1151 19.2194 10.6442 21.4043 12.4012C23.5892 14.1582 22.0912 19.7489 18.6996 19.4925C15.308 19.2361 18.2942 25.9618 14.1225 28.1668Z" fill="#E7EAF3"/>
    <circle cx="10.0075" cy="12.8002" r="7.66279" stroke="#505573" stroke-width="1.5"/>
    <path fill-rule="evenodd" clip-rule="evenodd" d="M18.3767 13.6594C18.4054 13.3769 18.4201 13.0903 18.4201 12.8003C18.4201 12.5847 18.412 12.3709 18.396 12.1594H25.2189V11.042C25.2189 9.66128 24.0996 8.54199 22.7189 8.54199H17.2643C16.9458 8.00024 16.5683 7.4973 16.1406 7.04199H22.7189C24.928 7.04199 26.7189 8.83285 26.7189 11.042V12.1594V13.6594V21.7669C26.7189 23.976 24.928 25.7669 22.7189 25.7669H8.24902C6.03988 25.7669 4.24902 23.976 4.24902 21.7669V18.9336C4.70433 19.3612 5.20727 19.7387 5.74902 20.0573V21.7669C5.74902 23.1476 6.86831 24.2669 8.24902 24.2669H22.7189C24.0996 24.2669 25.2189 23.1476 25.2189 21.7669V13.6594H18.3767Z" fill="#505573"/>
    <path fill-rule="evenodd" clip-rule="evenodd" d="M14.5747 10.4439C14.5747 10.6823 14.4634 10.8948 14.2899 11.0322L12.0493 12.8247C11.7258 13.0834 11.2539 13.031 10.9951 12.7075C10.7364 12.3841 10.7888 11.9121 11.1122 11.6534L11.6867 11.1938L6.19531 11.1938C5.7811 11.1938 5.44531 10.8581 5.44531 10.4438C5.44531 10.0296 5.7811 9.69384 6.19531 9.69384L11.6866 9.69384L11.1122 9.23436C10.7888 8.9756 10.7364 8.50363 10.9951 8.18019C11.2539 7.85674 11.7258 7.8043 12.0493 8.06306L14.2864 9.85272C14.4619 9.98999 14.5747 10.2037 14.5747 10.4438C14.5747 10.4438 14.5747 10.4439 14.5747 10.4439Z" fill="#505573"/>
    <path fill-rule="evenodd" clip-rule="evenodd" d="M5.73074 14.5656C5.55521 14.7029 5.44238 14.9166 5.44238 15.1567C5.44238 15.1567 5.44238 15.1567 5.44238 15.1568C5.44239 15.388 5.54704 15.5948 5.71155 15.7323C5.7167 15.7366 5.7219 15.7409 5.72717 15.745L7.9678 17.5376C8.29125 17.7963 8.76322 17.7439 9.02198 17.4204C9.28073 17.097 9.22829 16.625 8.90485 16.3663L8.33044 15.9067L13.8218 15.9067C14.236 15.9067 14.5718 15.5709 14.5718 15.1567C14.5718 14.7425 14.236 14.4067 13.8218 14.4067L8.3305 14.4067L8.90484 13.9473C9.22829 13.6885 9.28073 13.2165 9.02198 12.8931C8.76322 12.5696 8.29125 12.5172 7.9678 12.7759L5.73074 14.5656Z" fill="#505573"/>
    <path d="M19.2295 21.2417H22.9745" stroke="#505573" stroke-width="1.5" stroke-linecap="round" stroke-linejoin="round"/>
  </g>
  <defs>
    <clipPath id="clip0">
      <rect width="28" height="30" fill="white"/>
    </clipPath>
  </defs>
</svg>

<svg width="28" height="30" fill="none" xmlns="http://www.w3.org/2000/svg"><g clip-path="url(#clip0)"><path d="M14.123 28.167c-3.338 1.764-6.877-3.162-10.154-5.798C.69 19.733-.61 15.524 2.647 10.729c3.256-4.795 6.519.958 8.943 1.672 2.424.714 7.63-1.757 9.814 0 2.185 1.757.687 7.348-2.704 7.091-3.392-.256-.406 6.47-4.577 8.675z" fill="#E7EAF3"/><circle cx="10.008" cy="12.8" r="7.663" stroke="#505573" stroke-width="1.5"/><path fill-rule="evenodd" clip-rule="evenodd" d="M18.377 13.66a8.498 8.498 0 0 0 .019-1.5h6.823v-1.118a2.5 2.5 0 0 0-2.5-2.5h-5.455a8.436 8.436 0 0 0-1.123-1.5h6.578a4 4 0 0 1 4 4V21.767a4 4 0 0 1-4 4H8.249a4 4 0 0 1-4-4v-2.833c.455.427.958.805 1.5 1.123v1.71a2.5 2.5 0 0 0 2.5 2.5h14.47a2.5 2.5 0 0 0 2.5-2.5v-8.108h-6.842z" fill="#505573"/><path fill-rule="evenodd" clip-rule="evenodd" d="M14.575 10.444c0 .238-.112.45-.285.588l-2.24 1.793a.75.75 0 0 1-.938-1.172l.575-.46H6.195a.75.75 0 1 1 0-1.5h5.492l-.575-.459a.75.75 0 0 1 .937-1.17l2.237 1.789a.749.749 0 0 1 .289.59zM5.73 14.566a.748.748 0 0 0-.004 1.18l2.242 1.792a.75.75 0 0 0 .937-1.172l-.575-.46h5.492a.75.75 0 0 0 0-1.5H8.33l.574-.459a.75.75 0 0 0-.937-1.171l-2.237 1.79z" fill="#505573"/><path d="M19.23 21.242h3.744" stroke="#505573" stroke-width="1.5" stroke-linecap="round" stroke-linejoin="round"/></g><defs><clipPath id="clip0"><path fill="#fff" d="M0 0h28v30H0z"/></clipPath></defs></svg>
